X:1
T:PEELER'S JACKET -- REEL
B:Ryan's Mammoth Collection of Fiddle Tunes
R:reel
Z:Contributed 20001206201155 by John Chambers John.Chambers:weema.com
Z:Contributed by Ray Davies,  ray:davies99.freeserve.co.uk
M:C|
L:1/8
K:D
uA2 |\
Adcd BAFA | Adcd BAFA | ABde fded | Bdef gfed |
dcdA BAFA | Adcd BAFA | ABde fdec | dBAF D2 |]
(fg) |\
abag fgfe | dcdA BAFA | ABde fded | Bdef e2(fg) |
abag fgfe | dcdA BAFA | ABde fdec | dBAF D2 |]
